X: 082155
T: Humours of Killargue (The)
C: Joe Liddy
S: "The Leitrim Fiddler" (Dublin 1981)
Z: BB
L: 1/8
M: 4/4
R: reel
Q: 1/4 = 170
K: G
EF | G2 BG dGBG | GABG AGFD | G2 BG FGAB | cdfd cAFA |
G2 BG dGBG | GABG FGAB | cdfe dcAd | (3edc AF G2 :|
Bd | g2 bg fdcd | fdge fdcA | BGGA Bcde | fdcB cdef |
g2 bg fdcd | fdge fdcA | BGBc defg | fdca G2 Bd ||
g2 bg fdcd | fdge fdcA | BGGA Bcde | fd (3edc defg |
bg (3agf gbgf | dgdc BGFD | GABc defg | fdcA G4 ||
%%%%%%%%%%%%%%%%%%%%%
